X:24
T:Pibddawns Hart [Hart's Hornpipe]
R:hornpipe
C:Welsh Trad.
S:Cambrian Trifles
N:after Nyth y Gog [The Cuckoo's Nest]. The
N:hornpipes, as I said, were played almost as slower reels. Faster than
N:Irish HPs and with even rhythm.
Z:gchapin@CTEL.NET
M:C|
L:1/8
K:G
GF|:G2g2 gddB|c2e2 e2fg|dBdB e2e2|AGAB GFED|
G2g2 gddB|c2e2 e2fg|dBdB cAGF|1 G2B2 G2GF:|2 G2B2 G2FG||
|:BGBG B3d|ecec A3e|dBdB cBAG|FGAB A2GA|
BGBG B3d|ecec A3e|dBdB cAGF|1 G2B2 G2FG:|2 G2B2 G2GF||
|:GDB,D GABG|AFDF AFcA|BGcA d3e|dgdB B2A2|
GDB,D GABG|AFDF AFcA|BGcA d3e|dBAB G2GF:||
